X:82
T:82 The Rosetta
C:Welch MS
I:abc2nwc
M:6/8
L:1/8
K:G
D|G2G GBd|G2G G2G|A2A ABc|B2G G2D|G2G GBd|G2G G2G|AcB AGF|G2G G2:|
d|g2g aga|b2g g2d|ded dcB|A2D D2d|g2g aga|b2g g2e|dcB AGF|G2G G2:|


